X:1
T:The Pathway of the Just
T:The Pathway of the Just
T:Barney E. Warren, pub.1911
T:Lyricist
T:PUBLIC DOMAIN
T:PUBLIC DOMAIN
C:Barney E. Warren, pub.1911
Z:Lyricist
Z:PUBLIC DOMAIN
%%score ( 1 2 ) ( 3 4 )
L:1/8
Q:1/4=90
M:4/4
K:Ab
V:1 treble nm="Soprano"
V:2 treble 
V:3 bass nm="Bass"
V:4 bass 
V:1
 [A,C] [B,D] | [CE] [CE] [CA] [DB] [Ec]2 [Ec] [Ec] | [FB] [FA] [FA] [DF] [DA]2 [DF] [DF] | %3
w: 1.~There are|beams of bril- liant sun- light a-|long the ho- ly way, Where the|
w: 2.~They are|walk- ing in the foot- steps of|Je- sus all the time, For the|
w: 3.~They are|joy- ful in temp- ta- tion be-|cause the Lord is near, Let of-|
w: 4.~By the|pas- tures ev- er green, by re-|fresh- ing wa- ters free, Christ will|
 [CE] [CE] [EA] [EB] | [Ec] [Ec] [EB] [=DA] | [EB]6 [A,C][B,D] | %6
w: wea- ry pil- grims|trav- el in the|dust; They are|
w: need- ed strength and|grace in Him they|trust; They are|
w: fenc- es come, for|Je- sus said they|must; So with|
w: lead them if in|Him they ful- ly|trust; To the|
 [CE] [CE] [CA] [DB] [Ec]2 [Ec] [Ec] | [FB] [FA] [FA] [DF] [DA]2 | [DF] [DF] | %9
w: hap- py as they’re near- ing that|land of bliss- ful day,|They are|
w: on the way to glo- ry where|joys are more sub- lime,|They are|
w: sword and shield they con- quer with-|out a doubt or fear,|They are|
w: Fa- ther He will say, “These are|mine Thou gav- est me,|“I have|
 [CE] [CE] [EA] [EB] [Ec] [EA] [Ac]3/2 [EB]/ | [EA]6 ||"^Refrain" [Ec] [Ed] | [Ae]4 [Ec]2 | %13
w: walk- ing in the path- way of the|just.|They are|walk- ing,|
w: walk- ing in the path- way of the|just.|||
w: walk- ing in the path- way of the|just.|||
w: kept them in the path- way of the|just.”|||
 [EA] [EB] | [Ac]4 [EA]2 E E | [DF] [FA] [FA] [DF] [CE] [CA] [Ec]3/2 [EA]/ | [EB]6 | [Ec] [Ed] | %18
w: they are|walk- ing, They are|walk- ing in the path- way of the|just;|They are|
w: |||||
w: |||||
w: |||||
 [Ae]4 [Ec]2 [EA] [EB] | [Ac]4 [EA]2 [CE] [CE] | [DF] [FA] [FA] [DF] [CE] [CA] [Ec]3/2 [DB]/ | %21
w: walk- ing, they are|walk- ing, They are|walk- ing in the path- way of the|
w: |||
w: |||
w: |||
 [CA]6 |] %22
w: just.|
w: |
w: |
w: |
V:2
 x2 | x8 | x8 | x4 | x4 | x8 | x8 | x6 | x2 | x8 | x6 || x2 | x6 | x2 | z4 z2 E E | x8 | x6 | x2 | %18
 x8 | x8 | x8 | x6 |] %22
V:3
 [A,,E,] [A,,E,] | [A,,A,] [A,,A,] [A,,A,] [A,,A,] [A,,A,]2 [A,,A,] [A,,A,] | %2
w: ||
 [D,A,] [D,A,] [D,A,] [D,A,] [D,F,]2 [D,A,] [D,A,] | [A,,A,] [A,,A,] [C,A,] [E,G,] | %4
w: ||
 A, A, [G,B,] [F,B,] | [E,G,]6 [A,,E,][A,,E,] | %6
w: ||
 [A,,A,] [A,,A,] [A,,A,] [A,,A,] [A,,A,]2 [A,,A,] [A,,A,] | [D,A,] [D,A,] [D,A,] [D,A,] [D,F,]2 | %8
w: ||
 [D,A,] [D,A,] | [E,A,] [E,A,] [E,C] [E,D] [E,E] [E,C] [E,E]3/2 [E,D]/ | [A,,C]6 || A, [A,B,] | %12
w: |||They are|
 [A,C] [A,C] [A,C] [A,C] A, A, | [A,C] [A,D] | [A,E] [A,E] [A,E] [A,E] [A,C] [A,C] [A,,C] [A,,C] | %15
w: walk- ing in the path- way,|they are|walk- ing in the path- way, * *|
 [D,A,] [D,A,] [D,A,] [D,A,] [A,,A,] [A,,A,] [A,,A,]3/2 [C,A,]/ | G,6 | [C,A,] [B,,A,B,] | %18
w: ||They are|
 [A,,A,C] [A,,A,C] [A,,A,C] [A,,A,C] [A,,A,] [A,,A,] [A,C] [A,D] | %19
w: walk- ing in the path- way, they are|
 [A,E] [A,E] [A,E] [A,E] [A,C] [A,C] [A,,A,] [A,,A,] | %20
w: walk- ing in the path- way, * *|
 [D,A,] [D,A,] [D,A,] [D,A,] [E,A,] [E,A,] [E,A,]3/2 [E,G,]/ | [A,,A,]6 |] %22
w: ||
V:4
 x2 | x8 | x8 | z4 | A, A, z2 | x8 | x8 | x6 | x2 | x8 | x6 || A, z | z4 A, A, | z2 | x8 | x8 | %16
 (E,4 E, D,) | x2 | x8 | x8 | x8 | x6 |] %22

